X:1
T:Ihr lieben Kinder, frewet euch
T:Joachim a Burck
T:Source : Breitkopf & Härtel---Leipzig---R.Eitner---1898. First print : 20 Deutsche Lieder mit 3 Stimmen---Erfurt---G.Baumann---1575. Editor : André Vierendeels (05/11/17). Notes : Original clefs : C1, C3, C4, F4 Editorial accidentals above the staff Text by Ludovico Helmbold (Christeliche Reimen)
T:Ihr lieben Kinder, frewet euch
T:©
T:©
T:©
C:Joachim a Burck
Z:©
%%score [ 1 2 3 4 ]
L:1/8
Q:1/4=120
M:4/4
K:C
V:1 treble nm="Soprano" snm="S"
V:2 treble nm="Alto" snm="A"
V:3 treble-8 nm="Tenor" snm="T"
V:4 bass nm="Bass" snm="B"
V:1
 z4 z2 G2 | G2 G2 A4 | G2 GA Bc d2- | dc c4 B2 | c4 z2 B2 | d4 e4 | d4 B4 | A4 G4 | z4 z2 G2 | %9
w: Ihr|lie- ben Kin-|der frew- * * * *|* * * wet|euch, frewt|euch ihr|al- ten|zu- gleich,|dass|
w: Sie|ist er- füllt|durch Got- * * * *|* * * tes|Gnad, der|end- lich|ge- ge-|ben hat|und|
 c4 B2 d2- | d2 A2 G4 | E4 D4 | z2 A2 A4 | A2 A4 B2 | c3 B A2 G2 | ^F2 A2 _B2 A2- | AG G4 ^F2 | %17
w: Gott sein zu-|* sag hat|be- weist,|die er|ge- than im|Pa- * * ra-|deiss, Ky- ri- e,|_ _ e- ley-|
w: in die Welt|_ sein'n Sohn|ge- sandt,|ge- bo-|ren von eim|Weib _ oh- ne|Man, Ky- ri- e,|_ _ e- ley-|
 G2 A2 A4 | A2 A4 B2 | c3 B A2 G2 | ^F2 A2 _B2 A2- | AG G4 ^F2 | G8 |] %23
w: son, die er|ge- than im|Pa- * * ra-|deiss, Ky- ri- e,|_ _ e- ley-|son.|
w: son, ge- bo-|ren von ein|Weib _ oh- ne|Man, Ky- ri- e,|_ _ e- ley-|son.|
V:2
"^2)" z4 z2 D2 |"^1)" E2 E2 F4 | D4 G3 F | E2 F2 G4 | z2 G2 G4 | G2 A2 G4- | G2 ^F2 G4 | C4 E2 D2 | %8
w: Ihr|lie- ben Kin-|der frew- *|* wet euch,|frewt euch|ihr al- *|* * ten|zu- gleich, dass|
w: Un-|ters Ge- setz|war er _|_ ge- than,|wel- ches|uns Hart kla-|* get an;|da- von hat|
 G2 F2 E3 D | C2 A,2 D2 D2 | G2 E2 E2 D2 | ^C2 C2 D4 | z2 F2 F4 | E2 F4 G2 | G3 F E2 E2 | %15
w: Gott sein zu- sag|hat be- weist, dass|Gott sein zu- sag|hat be- weist,|die er|ge- than im|Pa- * * ra-|
w: uns der Sohn _|_ er- löst, da-|von hat uns der|Sohn er- löst|so ha-|ben wir der|Kund- * * schafft|
"^-natural" D2 F2 D4 | D4 D4 | D2 F2 F4 | E2 F4 G2 | G3 F E2 E2 |"^-natural" D2 F2 D4 | D2 D2 D4 | %22
w: deiss, Ky- ri-|e,e- ley-|son, die er|ge- than im|Pa- * * ra-|deiss, Ky- ri-|e, e- ley-|
w: Trost, Ky- ri-|e,e ley-|son, so ha-|ben wir der|Kund- * * schafft|Trost, Ky- ri-|e, e- ley-|
 D8 |] %23
w: son.|
w: son.|
V:3
"^3)" z4 z2 B2 |"^1)" c2 B2 d3 c | BA B4 B2 | c4 d4 | c4 B2 B2- | B2 A2 B2 c2 | A4 G4 | %7
w: Ihr|lie- ben Kin- *|* * * der|frew- et|euch, frewt euch|_ ihr al- ten|zu- gleich,|
 z2 A2 c2 B2 | d4 A2 G2- | G2 F2 G2 _B2 | G2 A2 c2 G2 | A2 A2 D4 | z2 d2 d4 | ^c2 d4 d2 | %14
w: dass Gott sein|zu- sag hat|_ be- weist, dass|Gott sein zu- sag|hat be- weist,|die er|ge- than im|
 e3 d c2 B2 | A2 d4 A2 | _B4 A4 | B2 d2 d4 | ^c2 d4 d2 | e3 d c2 B2 | A2 d4 A2 | _B4 A4 | G8 |] %23
w: Pa- * * ra-|deiss, Ky- ri-|e,e- ley-|son, die er|ge- than im|Pa- * * ra-|deiss, Ky- ri-|e,e- ley-|son.|
V:4
 z4 z2 G,2 |"^1)""^1)" C,2 E,2 D,4 | G,4 G,4 | A,4 G,4 | z2 C,2 E,2 G,2- | G,2 F,2 E,2 C,2 | %6
w: Ihr|lie- ben Kin-|der frew-|et euch,|frewt euch ihr|_ al- ten zu-|
 D,4 z2 G,2 | F,4 E,2 G,2- | G,2 D,2 C,4 | A,,4 G,,4 | z8 | z8 | z2 D,2 D,4 | A,,2 D,4 G,2 | %14
w: gleich, dass|Gott sein zu-|* sag hat|be- weist,|||die er|ge- than im|
 C,4 C,4 | D,4 G,2 ^F,2 | G,4 D,4 | G,,2 D,2 D,4 | A,,2 D,4 G,2 | C,4 C,4 | D,4 G,2 ^F,2 | %21
w: Pa- ra-|deiss, Ky- ri-|e,e- ley-|son, die er|ge- than im|Pa- ra-|deiss, Ky- ri-|
 G,4 D,4 | G,,8 |] %23
w: e,e- ley-|son.|

